icons/networks/logos/poa.svg

<svg width="67" height="20" viewBox="0 0 67 20" fill="none" xmlns="http://www.w3.org/2000/svg">
<g clip-path="url(#clip0_115_319)">
<path opacity="0.8" fill-rule="evenodd" clip-rule="evenodd" d="M10.3158 15.436H9.37757V18.0937H9.37457L9.37757 18.1087C9.37757 18.6008 8.95745 18.9999 8.43931 18.9999H0.937256C0.420115 18.9999 0 18.6008 0 18.1087L0.00300082 18.0937H0V1.93227H0.00300082L0 1.91727C0 1.42513 0.420115 1.02602 0.937256 1.02602H10.3158C14.459 1.02602 17.8169 4.25191 17.8169 8.231C17.8169 12.2111 14.459 15.436 10.3158 15.436ZM29.07 1.02602C34.2494 1.02602 38.4475 5.05012 38.4475 10.0135C38.4475 14.9768 34.2494 18.9999 29.07 18.9999C23.8915 18.9999 19.6934 14.9768 19.6934 10.0135C19.6934 5.05012 23.8915 1.02602 29.07 1.02602ZM60.0164 18.4298C60.0164 18.7369 59.7564 18.9859 59.4363 18.9859H38.1614C38.1364 18.9889 38.1144 18.9999 38.0884 18.9999C38.0135 19.001 37.9392 18.9873 37.8696 18.9596C37.8 18.9319 37.7366 18.8908 37.6829 18.8386C37.6292 18.7864 37.5863 18.7242 37.5567 18.6554C37.5271 18.5866 37.5113 18.5127 37.5103 18.4378C37.5103 18.3148 37.5583 18.2077 37.6263 18.1157L37.6173 18.0977L48.1782 1.44414H48.2012C48.2291 1.31749 48.2997 1.20428 48.4011 1.12344C48.5026 1.0426 48.6287 0.999031 48.7583 1.00002C49.0384 1.00002 49.2605 1.19207 49.3155 1.44414H49.3385L60.0164 18.2087L59.9794 18.2567C60.0017 18.3118 60.0143 18.3704 60.0164 18.4298Z" fill="#5C34A2"/>
</g>
<defs>
<clipPath id="clip0_115_319">
<rect width="66.6667" height="20" fill="white"/>
</clipPath>
</defs>
</svg>

<svg viewBox="0 0 67 20" fill="none" xmlns="http://www.w3.org/2000/svg">
  <g clip-path="url(#poa_svg__a)">
    <path opacity=".8" fill-rule="evenodd" clip-rule="evenodd" d="M10.316 15.436h-.938v2.658h-.003l.003.015c0 .492-.42.89-.939.89H.937C.42 19 0 18.602 0 18.11l.003-.015H0V1.932h.003L0 1.917c0-.492.42-.891.937-.891h9.379c4.143 0 7.5 3.226 7.5 7.205 0 3.98-3.357 7.205-7.5 7.205ZM29.07 1.026c5.18 0 9.377 4.024 9.377 8.988 0 4.963-4.198 8.986-9.377 8.986-5.178 0-9.377-4.023-9.377-8.986 0-4.964 4.198-8.988 9.377-8.988ZM60.016 18.43c0 .307-.26.556-.58.556H38.161c-.025.003-.047.014-.073.014a.569.569 0 0 1-.578-.562c0-.123.048-.23.116-.322l-.009-.018L48.178 1.444h.023A.566.566 0 0 1 48.758 1c.28 0 .502.192.557.444h.024L60.016 18.21l-.037.048a.51.51 0 0 1 .037.173Z" fill="#5C34A2"/>
  </g>
  <defs>
    <clipPath id="poa_svg__a">
      <path fill="#fff" d="M0 0h66.667v20H0z"/>
    </clipPath>
  </defs>
</svg>
